!!!!SEGMENT: pl-lzu--m-15111--001-005_noskowski-zygmunt--spiewnik-dla-dzieci-op-34-5-rzeka.krn
!!!cenid: 18xx:4702
!!!COM: Noskowski, Zygmunt
!!!COM-rismID: pe106604
!!!CDT: 1846/05/02-1909/07/23
!!!CNT: Polish
!!!GTL: Śpiewnik dla dzieci, op. 34
!!!OTL: 5. Rzeka
!!!OMV: 005
!!!PDT: 1890
!!!AGN: Secular; Song; Children
!!!YEC: Copyright 2022 Narodowy Instytut Fryderyka Chopina (https://polishscores.org)
!!!YEM: License CC-BY-4.0 (https://creativecommons.org/licenses/by/4.0)
!!!SMS-siglum: PL-LŹu
!!!SMS-shelfmark: M 15111
!!!SMS-variant:
!!!SMS-altvar:
!!!SMS-shelfwork: 001-005 G
!!!NIFC-rismSourceID: 1001234040
!!!NIFC-rismChildID: 1001234040
!!!NIFC-islandoraID: pl-lzu:5455
!!!URL-pdf-islandora: https://repozytorium.nifc.pl/islandora/object/pl-lzu%3A5455/datastream/PDF/view
!!!URL-scan: https://polish.musicsources.pl/pl/lokalizacje/galeria/druki-muzyczne/23228/11 @EN{Scan on Polish Music Sources Website} @PL{Skany w portalu Dziedzictwo Muzyki Polskiej w otwartym dostępie}
!!!IIIF:
!!!ONB-nifc:
!!!AIN: 1 piano 1 vox
!!!key: A-
!!!OMD: Poco allegro.
**kern	**kern	**dynam	**kern	**text	**text	**text	**dynam
*part2	*part2	*part2	*part1	*part1	*part1	*part1	*part1
*staff3	*staff2	*staff2,3	*staff1	*staff1	*staff1	*staff1	*staff1
*I"[Piano]	*I"[Piano]	*	*I"[Voice]	*	*	*	*
*I'pf	*I'pf	*	*I'V	*	*	*	*
*Ipiano	*Ipiano	*	*Ivox	*	*	*	*
*ICklav	*ICklav	*	*ICvox	*	*	*	*
*IGacomp	*IGacomp	*	*IGsolo	*	*	*	*
*>[A,A,A]	*>[A,A,A]	*>[A,A,A]	*>[A,A,A]	*>[A,A,A]	*>[A,A,A]	*>[A,A,A]	*>[A,A,A]
*>A	*>A	*>A	*>A	*>A	*>A	*>A	*>A
*clefF4	*clefG2	*	*clefG2	*	*	*	*
*k[b-e-a-d-]	*k[b-e-a-d-]	*	*k[b-e-a-d-]	*	*	*	*
*A-:	*A-:	*	*A-:	*	*	*	*
*M3/4	*M3/4	*	*M3/4	*	*	*	*
=1	=1	=1	=1	=1	=1	=1	=1
*	*	*	*	*v:1	*v:2	*v:3	*
!	!LO:TX:a:i:t=Trochę żywo.	!	!	!	!	!	!
8.AA-/L 8.E-	8.c/L 8.e-	mf	8.c/ 8.e-	Za	Oj,	Nie	f
16AA-/Jk 16E-	16c/Jk 16f	.	16c/ 16f	tą	ty	na	.
4AA-/ 4E-	4c/ 4e-	.	4c/ 4e-	głę-	rze-	za-	.
4AA-^/ 4E-	4c^/ 4a-	.	4c^>/ 4a-	-bią,	-ko,	-wsze	.
=2	=2	=2	=2	=2	=2	=2	=2
8.AA-/L 8.F	8.d-/L 8.f	.	8.d-/ 8.f	za	oj,	słon-	.
16AA-/Jk 16F	16d-/Jk 16g	.	16d-/ 16g	tym	ty	-ko	.
4AA-/ 4F	4d-/ 4f	.	4d-/ 4f	bro-	si-	ga-	.
4AA-^/ 4F	4d-^/ 4a-	<	4d-^>,/ 4a-	-dem,	-na,	-śnie,	.
=3	=3	=3	=3	=3	=3	=3	=3
8.AA-/L 8.E-	8.d-/L 8.g	.	8.d-/ 8.g	Tam	Lo-	Nie	.
16AA-/Jk 16E-	16e-/Jk 16b-	.	16e-/ 16b-	sta-	-dy	na	.
2AA-^/ 2E-	4.g^<\ 4.ee-	.	4.g^>/ 4.ee-	-nę-	to-	za-	.
.	.	[	.	.	.	.	.
.	8e-/ 8dd-	.	8f/ 8dd-	-ła	-bie	-wsze	.
=4	=4	=4	=4	=4	=4	=4	=4
8.AA-/L 8.E-	8.e-/L 8.cc	.	8.e-/ 8.cc	rze-	nie	zie-	.
16AA-/Jk 16E-	16d-/Jk 16b-	.	16d-/ 16b-	-ka	no-	-mia	.
4AA-/ 4E-	4e-/ 4cc	.	4e-/ 4cc	lo-	-wi-	za-	.
4AA-/ 4E-	4c/ 4a-	.	4c/ 4a-	-dem,	-na,	-śnie,	.
!!LO:PB:g=original
=5	=5	=5	=5	=5	=5	=5	=5
*	*	*	*	*v:1	*v:2	*v:3	*
8.C\L 8.En	8.c/L 8.g	.	8.c/ 8.g	A-	Co	Nie	.
16C\Jk 16E	16c/Jk 16a-	.	16c/ 16a-	-ni	rok	na	.
4C\ 4E	4c/ 4g	.	4c/ 4g	szu-	zi-	za-	.
4C\ 4G	4en/ 4cc	.	4en/ 4cc	-mi,	-ma	-wsze	.
=6	=6	=6	=6	=6	=6	=6	=6
2F\	8.f/L 8.a-	.	8.f/ 8.a-	a-	wię-	wię-	.
.	16g/Jk 16b-	.	16g/ 16b-	-ni	-zi	-dnie	.
.	4f/ 4a-	.	4f/ 4a-	pły-	cie-	kwie-	.
4FF/ 4F	4a-\ 4cc	.	4a-,\ 4cc	-nie,	-bie,	-cie,	.
=7	=7	=7	=7	=7	=7	=7	=7
!	!LO:TX:b:i:t=rallentando	!	!LO:TX:a:i:t=zwalniać	!	!	!	!
8EEn/L 8En	8b-\L 8dd-	.	8b-\ 8dd-	Tyl-	Co	Nie	.
8FF/J 8F	8a-\J 8cc	.	8a-/ 8cc	-ko	rok	na	.
8GG\L 8G	8g/L 8b-	>	8g/ 8b-	du-	wich-	zaw-	>
8AA-\ 8A-	8f/ 8a-	.	8f/ 8a-	-ma	-ry	-sze	.
8BB-\ 8B-	8en/ 8g	.	8en/ 8g	w swej	mkną	mróz	.
8BBn\J 8Bn	8dn/J 8f	]	8dn/ 8f	głę-	po	na	]
=8	=8	=8	=8	=8	=8	=8	=8
2C\ 2c	4f/ 4a-	.	4f/ 4a-	-bi-	nie-	świe-	.
.	4en/ 4g	.	4en/ 4g	-nie:	-bie.	-cie.	.
4r	4r	.	4r	.	.	.	.
!!LO:LB:g=original
=9	=9	=9	=9	=9	=9	=9	=9
*	*	*	*	*v:1	*v:2	*v:3	*
!	!LO:TX:a:i:t=Trochę wolniej	!	!LO:TX:a:i:t=Poco piu tranquillo.	!	!	!	!
4r	8en/L 8g	p	8en/ 8g	Gdzie	Aż	Przyj-	p
.	8f/J 8a-	.	8f/ 8a-	jej	znów	-dzie	.
4C\ 4c	4g/ 4b-	.	4g/ 4b-	wio-	przyj-	wio-	.
4C\ 4c	4g/ 4b-	.	4g/ 4b-	-sna,	-dzie	-sna,	.
=10	=10	=10	=10	=10	=10	=10	=10
4r	8f/L 8a-	.	8f/ 8a-	gdzie	wio-	przyj-	.
.	8en/J 8g	.	8en/ 8g	jej	-sna	-dzie	.
4F\ 4c	8f/L 8a-	.	(8f/L 8a-	zo-	ho-	ho-	.
.	8g/J 8b-	.	8g/J) 8b-	.	.	.	.
4F\ 4c	4a-\ 4cc	.	4a-\ 4cc	-rza,	-ża,	-ża,	.
=11	=11	=11	=11	=11	=11	=11	=11
4r	8g/L 8b-	.	8g/ 8b-	Gdzie	I	Pój-	.
.	8a-/J 8cc	.	8a-/ 8cc	jej	po-	-dą	.
4En\ 4c	4b-\ 4dd-	.	4b-\ 4dd-	dro-	-pły-	rze-	.
4E\ 4c	4b-\ 4dd-	.	4b-\ 4dd-	-ga	-niesz	-ki	.
=12	=12	=12	=12	=12	=12	=12	=12
*	*	*	*^	*	*	*	*
4r	8a-/L 8cc	.	8a-/ 8cc	2ryy	het	het	het	.
.	8g/ 8b-	.	8g/ 8b-	.	do	do	do	.
8F\L 8c	8f/ 8a-	.	(8f/L 8a-	.	mo-	mo-	mo-	.
8B-\J	8en/J 8g	.	8en/J) 8g	.	.	.	.	.
4F\ 4A-	4f/	.	4f,/	4f\	-rza?	-rza!	-rza!	.
*	*	*	*v	*v	*	*	*	*
!!LO:LB:g=original
=13	=13	=13	=13	=13	=13	=13	=13
*	*	*	*	*v:1	*v:2	*v:3	*
4r	8e-X/L 8g	mf	8e-X/ 8g	Gdzie	Aż	Przyj-	mf
.	8f/ 8a-	.	8f/ 8a-	jej	znów	-dzie	.
4E-\ 4d-	8g/ 8b-	.	8g/ 8b-	wio-	przyj-	wio-	.
.	8g/J 8b-	<	8g/ 8b-	-sna,	-dzie	-sna,	.
8c\L	8a-\L 8cc	.	8a-\ 8cc	gdzie	wio-	przyj-	.
8B-\J	8b-\J 8dd-	[	8b-\ 8dd-	jej	-sna	-dzie	.
=14	=14	=14	=14	=14	=14	=14	=14
4A-\	2cc\ 2ee-	.	2cc\ 2ee-	zo-	ho-	ho-	.
4AA-/	.	.	.	.	.	.	.
4r	4a-\ 4cc	.	4a-,/ 4cc	-rza,	-ża,	-ża,	.
=15	=15	=15	=15	=15	=15	=15	=15
4D-\ 4A-	8f/L 8b-	.	8f/ 8b-	Gdzie	I	Pój-	.
.	8f/J 8cc	.	8f/ 8cc	jej	po-	-dą	.
4BB-\ 4A-	8f/L 8dd-	.	8f/ 8dd-	dro-	-pły-	rze-	.
.	8e-/ 8cc	>	8e-/ 8cc	-ga,	-niesz	-ki	.
.	.	.	.	.	.	.	>
4E-\ 4G	8d-/ 8b-	.	8d-/ 8b-	het	het	het	.
.	8e-/J 8g	.	8e-/ 8g	do	do	do	]]
=16	=16	=16	=16	=16	=16	=16	=16
*^	*	*	*	*	*	*	*
8G/L	4AA-\	4d-/ 4a-	.	4d-/ 4b-	mo-	mo-	mo-	.
8E-/J	.	.	]	.	.	.	.	.
4AA-\ 4A-	2ryy	4c/ 4a-	.	4c/ 4a-	-rza?	-rza!	-rza!	.
4r	.	4r	.	4r	.	.	.	.
*v	*v	*	*	*	*	*	*	*
=:|!	=:|!	=:|!	=:|!	=:|!	=:|!	=:|!	=:|!
*-	*-	*-	*-	*-	*-	*-	*-
!!!system-decoration: p1{p2}
!!!RDF**kern: > = above
!!!RDF**kern: < = below
!!!ENC: Andrzej Gręziak
!!!END: 2025-03-04
!!!ENC: Marta Lawrence
!!!END: 2025-03-20
